Sources/FrostedUI/Resources/Icons.xcassets/stats24.imageset/stats-24.svg

<svg width="24" height="24" viewBox="0 0 24 24" fill="none" xmlns="http://www.w3.org/2000/svg" data-fui-icon="true">
  <path
    d="M2.25 2.8125C2.66421 2.8125 3 3.14829 3 3.5625V18.125C3 19.1605 3.83947 20 4.875 20H21.9375C22.3517 20 22.6875 20.3358 22.6875 20.75C22.6875 21.1642 22.3517 21.5 21.9375 21.5H4.875C3.01104 21.5 1.5 19.989 1.5 18.125V3.5625C1.5 3.14829 1.83579 2.8125 2.25 2.8125ZM19.75 6.5C20.1642 6.5 20.5 6.83579 20.5 7.25V10.625C20.5 11.0392 20.1642 11.375 19.75 11.375C19.3358 11.375 19 11.0392 19 10.625V9.06055L13.9053 14.1553C13.6124 14.4482 13.1376 14.4482 12.8447 14.1553L10 11.3105L5.65527 15.6553C5.36238 15.9482 4.88762 15.9482 4.59473 15.6553C4.30183 15.3624 4.30183 14.8876 4.59473 14.5947L9.46973 9.71973L9.52637 9.66797C9.82095 9.42766 10.2557 9.44512 10.5303 9.71973L13.375 12.5645L17.9395 8H16.375C15.9608 8 15.625 7.66421 15.625 7.25C15.625 6.83579 15.9608 6.5 16.375 6.5H19.75Z"
    fill="currentColor"
  />
</svg>

<svg xmlns="http://www.w3.org/2000/svg" width="24" height="24" fill="none" data-fui-icon="true" viewBox="0 0 24 24"><path fill="currentColor" d="M2.25 2.813a.75.75 0 0 1 .75.75v14.562C3 19.16 3.84 20 4.875 20h17.063a.75.75 0 0 1 0 1.5H4.875A3.375 3.375 0 0 1 1.5 18.125V3.563a.75.75 0 0 1 .75-.75M19.75 6.5a.75.75 0 0 1 .75.75v3.375a.75.75 0 0 1-1.5 0V9.061l-5.095 5.094a.75.75 0 0 1-1.06 0L10 11.311l-4.345 4.344a.75.75 0 1 1-1.06-1.06L9.47 9.72l.056-.052a.75.75 0 0 1 1.004.052l2.845 2.845L17.939 8h-1.564a.75.75 0 0 1 0-1.5z"/></svg>
